X: 408
T:The Hibernian Jig
R:jig
M:6/8
L:1/8
Z:Peter Crummy
K:Em
D|DB,D DB,D|DB,D D2G|EGE EDE|GAB B2A|
ABd efg|dBA GAB|Bed BAB|GED E2:|
d|ded dBd|ege e2d|dBd edc|B2A G2d|
ged edB|dBA B2G|ABd ede|GEE E2:|
<end>
<start>
